X: 1
T: Joe Bann's
M: 4/4
L: 1/8
R: barndance
K: Fmaj
FGFG Acc2|AGAF GFDC|DFFG Acc2|dfeg fdcA|
FGFG Acc2|AGAF GFDC|DFFG Acc2|dfeg f3||
e|fgaf fdc2|defd cAA2|fgaf fdc2|dfeg f3 e|
fgaf fdc2|defd cAAG|FGFG Ac~c2|dfeg f3||
